Dominus_Dark_Funeral/22/apps/cuttlefish.svg

<svg xmlns="http://www.w3.org/2000/svg" width="24" height="24" version="1"><path d="M12.06 1.865c-1.71 0-3.287.575-4.58 1.549-.668-.1-1.76-.14-1.76.704 0 .093.016.222.039.366-.957.275-1.89 1.487-2.377 3.086-.038.12-.072.243-.104.366l-.047.213a7.792 7.792 0 0 0-.127.736c-.192 1.588.156 2.964.895 3.538-.139.512.459.913.952 1.149.054.482.053.964-.4 1.446-1.135 1.211-3.324 2.274-3.324 2.88 0 .605 3.325.148 4.46-1.063.257-.274.45-.513.604-.725.018.153.008.347-.067.644-.294 1.17-3.747 3.063-3.003 3.893.576.642 4.196-1.324 5.15-2.158-.38.86-1.743 3.646-.634 3.646 1.703 0 4.194-3.481 4.194-5.297 0 1.816 2.398 5.204 4.1 5.204 1.112 0-.163-2.695-.543-3.559.952.84 4.579 2.669 5.156 2.025.744-.83-2.709-2.584-3.003-3.754-.074-.295-.085-.488-.067-.64.153.211.345.449.6.721 1.135 1.21 4.599.834 4.599.229s-2.328-.835-3.464-2.046c-.355-.379-.433-.758-.423-1.137.131-.15.25-.315.36-.488.39-.239.728-.57.621-.97.736-.575 1.082-1.947.891-3.53a6.827 6.827 0 0 0-.08-.524 7.8 7.8 0 0 0-.197-.8c-.483-1.586-1.407-2.793-2.357-3.08.023-.148.041-.28.041-.376 0-.763-.899-.805-1.565-.732a7.572 7.572 0 0 0-4.54-1.516zM5.844 4.937c.156.77.406 1.817.436 2.652a31.04 31.04 0 0 1-.26 1.13 30.51 30.51 0 0 1-.5 1.756v.001c-.42.55-.922 1.087-1.228 1.47-.346-.701-.47-1.805-.337-3 .452-.376.732-.946 1.26-.848.78.143-.122-.813-.604-.712-.162.034-.267.082-.375.125.365-1.277.971-2.248 1.608-2.574zm12.176.101c.669.298 1.312 1.246 1.703 2.51-.148-.049-.26-.118-.47-.162-.48-.1-1.383.855-.603.712.576-.107.854.584 1.385.949.135 1.203-.01 2.305-.394 2.98-.298-.388-.852-.971-1.303-1.563a30.562 30.562 0 0 1-.494-1.744c-.087-.35-.167-.7-.241-1.05.014-.812.254-1.844.417-2.632z" class="ColorScheme-Text" color="#090d11" fill="#e6e6e6"/></svg>

<?xml version="1.0" encoding="UTF-8" standalone="no"?>
<svg
   xmlns:dc="http://purl.org/dc/elements/1.1/"
   xmlns:cc="http://creativecommons.org/ns#"
   xmlns:rdf="http://www.w3.org/1999/02/22-rdf-syntax-ns#"
   xmlns:svg="http://www.w3.org/2000/svg"
   xmlns="http://www.w3.org/2000/svg"
   xmlns:sodipodi="http://sodipodi.sourceforge.net/DTD/sodipodi-0.dtd"
   xmlns:inkscape="http://www.inkscape.org/namespaces/inkscape"
   width="24"
   height="24"
   version="1"
   id="svg4"
   sodipodi:docname="cuttlefish.svg"
   inkscape:version="0.92.4 (5da689c313, 2019-01-14)">
  <metadata
     id="metadata10">
    <rdf:RDF>
      <cc:Work
         rdf:about="">
        <dc:format>image/svg+xml</dc:format>
        <dc:type
           rdf:resource="http://purl.org/dc/dcmitype/StillImage" />
        <dc:title></dc:title>
      </cc:Work>
    </rdf:RDF>
  </metadata>
  <defs
     id="defs8" />
  <sodipodi:namedview
     pagecolor="#ffffff"
     bordercolor="#666666"
     borderopacity="1"
     objecttolerance="10"
     gridtolerance="10"
     guidetolerance="10"
     inkscape:pageopacity="0"
     inkscape:pageshadow="2"
     inkscape:window-width="1142"
     inkscape:window-height="480"
     id="namedview6"
     showgrid="false"
     inkscape:zoom="9.8333333"
     inkscape:cx="1.2711864"
     inkscape:cy="12"
     inkscape:window-x="0"
     inkscape:window-y="25"
     inkscape:window-maximized="0"
     inkscape:current-layer="svg4" />
  <path
     d="M 12.06,1.865 C 10.35,1.865 8.773,2.44 7.48,3.414 6.812,3.314 5.72,3.274 5.72,4.118 5.72,4.211 5.736,4.34 5.759,4.484 4.802,4.759 3.869,5.971 3.382,7.57 3.344,7.69 3.31,7.813 3.278,7.936 L 3.231,8.149 A 7.792,7.792 0 0 0 3.104,8.885 c -0.192,1.588 0.156,2.964 0.895,3.538 -0.139,0.512 0.459,0.913 0.952,1.149 0.054,0.482 0.053,0.964 -0.4,1.446 -1.135,1.211 -3.324,2.274 -3.324,2.88 0,0.605 3.325,0.148 4.46,-1.063 0.257,-0.274 0.45,-0.513 0.604,-0.725 0.018,0.153 0.008,0.347 -0.067,0.644 -0.294,1.17 -3.747,3.063 -3.003,3.893 0.576,0.642 4.196,-1.324 5.15,-2.158 -0.38,0.86 -1.743,3.646 -0.634,3.646 1.703,0 4.194,-3.481 4.194,-5.297 0,1.816 2.398,5.204 4.1,5.204 1.112,0 -0.163,-2.695 -0.543,-3.559 0.952,0.84 4.579,2.669 5.156,2.025 0.744,-0.83 -2.709,-2.584 -3.003,-3.754 -0.074,-0.295 -0.085,-0.488 -0.067,-0.64 0.153,0.211 0.345,0.449 0.6,0.721 1.135,1.21 4.599,0.834 4.599,0.229 0,-0.605 -2.328,-0.835 -3.464,-2.046 -0.355,-0.379 -0.433,-0.758 -0.423,-1.137 0.131,-0.15 0.25,-0.315 0.36,-0.488 0.39,-0.239 0.728,-0.57 0.621,-0.97 0.736,-0.575 1.082,-1.947 0.891,-3.53 a 6.827,6.827 0 0 0 -0.08,-0.524 7.8,7.8 0 0 0 -0.197,-0.8 C 19.998,5.983 19.074,4.776 18.124,4.489 18.147,4.341 18.165,4.209 18.165,4.113 18.165,3.35 17.266,3.308 16.6,3.381 A 7.572,7.572 0 0 0 12.06,1.865 Z M 5.844,4.937 C 6,5.707 6.25,6.754 6.28,7.589 a 31.04,31.04 0 0 1 -0.26,1.13 30.51,30.51 0 0 1 -0.5,1.756 v 0.001 C 5.1,11.026 4.598,11.563 4.292,11.946 3.946,11.245 3.822,10.141 3.955,8.946 4.407,8.57 4.687,8 5.215,8.098 5.995,8.241 5.093,7.285 4.611,7.386 4.449,7.42 4.344,7.468 4.236,7.511 4.601,6.234 5.207,5.263 5.844,4.937 Z M 18.02,5.038 c 0.669,0.298 1.312,1.246 1.703,2.51 -0.148,-0.049 -0.26,-0.118 -0.47,-0.162 -0.48,-0.1 -1.383,0.855 -0.603,0.712 0.576,-0.107 0.854,0.584 1.385,0.949 0.135,1.203 -0.01,2.305 -0.394,2.98 -0.298,-0.388 -0.852,-0.971 -1.303,-1.563 A 30.562,30.562 0 0 1 17.844,8.72 C 17.757,8.37 17.677,8.02 17.603,7.67 17.617,6.858 17.857,5.826 18.02,5.038 Z"
     class="ColorScheme-Text"
     id="path2"
     inkscape:connector-curvature="0"
     style="color:#090d11;fill:#e6e6e6" />
</svg>
